X: 1
T: City Guards
P: piffero primo a0826
O: Ancient Mariners
F: http://ancients.sudburymuster.org/mus/ssp/pdf/adamsyorkC0.pdf
Z: 2019 John Chambers <jc:trillian.mit.edu>
M: 6/8
L: 1/8
K: G
d |\
b2a gfe | d2B G2B/B/ | BcB BAG | BAA A2d |\
b2a gfe | d2B G2B/B/ | BcB AGF | G3  z2 :|
|: d |\
g2a bag | f2g afd | g2a bag | f2g a2d |\
g2a bag | f2g afd | efg fga | g3  z2 :|


